SVG_Azure_All/Intune Managed Desktop.svg

<?xml version="1.0" encoding="UTF-8" standalone="no"?>
<!-- Generated by Microsoft Visio, SVG Export Intune Managed Desktop.svg Page-1 -->

<svg
   xmlns:dc="http://purl.org/dc/elements/1.1/"
   xmlns:cc="http://creativecommons.org/ns#"
   xmlns:rdf="http://www.w3.org/1999/02/22-rdf-syntax-ns#"
   xmlns:svg="http://www.w3.org/2000/svg"
   xmlns="http://www.w3.org/2000/svg"
   xmlns:sodipodi="http://sodipodi.sourceforge.net/DTD/sodipodi-0.dtd"
   xmlns:inkscape="http://www.inkscape.org/namespaces/inkscape"
   width="0.67597157in"
   height="0.63482785in"
   viewBox="0 0 48.669951 45.707647"
   xml:space="preserve"
   class="st6"
   version="1.1"
   id="svg47"
   sodipodi:docname="Intune Managed Desktop.svg"
   style="font-size:12px;overflow:visible;color-interpolation-filters:sRGB;fill:none;fill-rule:evenodd;stroke-linecap:square;stroke-miterlimit:3"
   inkscape:version="0.92.5 (2060ec1f9f, 2020-04-08)"><metadata
   id="metadata51"><rdf:RDF><cc:Work
       rdf:about=""><dc:format>image/svg+xml</dc:format><dc:type
         rdf:resource="http://purl.org/dc/dcmitype/StillImage" /></cc:Work></rdf:RDF></metadata><sodipodi:namedview
   pagecolor="#ffffff"
   bordercolor="#666666"
   borderopacity="1"
   objecttolerance="10"
   gridtolerance="10"
   guidetolerance="10"
   inkscape:pageopacity="0"
   inkscape:pageshadow="2"
   inkscape:window-width="640"
   inkscape:window-height="480"
   id="namedview49"
   showgrid="false"
   inkscape:zoom="2.0339329"
   inkscape:cx="37.795243"
   inkscape:cy="9.3579226"
   inkscape:window-x="0"
   inkscape:window-y="0"
   inkscape:window-maximized="0"
   inkscape:current-layer="svg47" />
	<style
   type="text/css"
   id="style2">
	<![CDATA[
		.st1 {fill:url(#grad0-5);stroke:none;stroke-linecap:butt;stroke-width:0.75}
		.st2 {fill:#ffffff;stroke:none;stroke-linecap:butt;stroke-width:0.75}
		.st3 {fill:url(#grad0-11);stroke:none;stroke-linecap:butt;stroke-width:0.75}
		.st4 {fill:#86d633;stroke:none;stroke-linecap:butt;stroke-width:0.75}
		.st5 {fill:#5e9624;stroke:none;stroke-linecap:butt;stroke-width:0.75}
		.st6 {fill:none;fill-rule:evenodd;font-size:12px;overflow:visible;stroke-linecap:square;stroke-miterlimit:3}
	]]>
	</style>

	<defs
   id="Patterns_And_Gradients">
		<linearGradient
   id="grad0-5"
   x1="-8.8895859e-08"
   y1="65.647877"
   x2="40.064156"
   y2="65.647877"
   gradientTransform="scale(1.2148016,0.8231797)"
   gradientUnits="userSpaceOnUse">
			<stop
   offset="0"
   stop-color="#0078d4"
   stop-opacity="1"
   id="stop4" />
			<stop
   offset="0.82"
   stop-color="#5ea0ef"
   stop-opacity="1"
   id="stop6" />
		</linearGradient>
		<linearGradient
   id="grad0-11"
   x1="0"
   y1="102.77927"
   x2="17.59559"
   y2="102.77927"
   gradientTransform="scale(1.3833011,0.7229084)"
   gradientUnits="userSpaceOnUse">
			<stop
   offset="0"
   stop-color="#1490df"
   stop-opacity="1"
   id="stop9" />
			<stop
   offset="0.98"
   stop-color="#1f56a3"
   stop-opacity="1"
   id="stop11" />
		</linearGradient>
	</defs>
	<g
   id="g45"
   transform="translate(-5.6693239,-4.8226)">
		<title
   id="title15">Page-1</title>
		<g
   id="group4004-1"
   transform="translate(5.66929,-34.0157)">
			<title
   id="title17">Intune Managed Desktop</title>
			<g
   id="shape4005-2"
   transform="translate(0,-15.2017)">
				<title
   id="title19">Sheet.4005</title>
				<path
   d="m 0,85.37 a 1.6224,1.6494 -180 0 0 1.62,1.65 h 45.43 a 1.6224,1.6494 -180 0 0 1.62,-1.65 V 55.69 A 1.6224,1.6494 -180 0 0 47.05,54.04 H 1.62 A 1.6224,1.6494 -180 0 0 0,55.69 Z"
   class="st1"
   id="path21"
   inkscape:connector-curvature="0"
   style="fill:url(#grad0-5);stroke:none;stroke-width:0.75;stroke-linecap:butt" />
			</g>
			<g
   id="shape4006-6"
   transform="translate(2.70394,-17.9506)">
				<title
   id="title24">Sheet.4006</title>
				<path
   d="m 0,86.12 a 0.892322,0.907172 -180 0 0 0.892301,0.907151 L 42.37,87.02 a 0.892322,0.907172 -180 0 0 0.892301,-0.907151 L 43.26,60.44 A 0.892322,0.907172 -180 0 0 42.367699,59.532849 L 0.89,59.53 a 0.892322,0.907172 -180 0 0 -0.892301,0.907151 z"
   class="st2"
   id="path26"
   inkscape:connector-curvature="0"
   style="fill:#ffffff;stroke:none;stroke-width:0.75;stroke-linecap:butt" />
			</g>
			<g
   id="shape4007-8"
   transform="translate(12.1677,-2.47405)">
				<title
   id="title29">Sheet.4007</title>
				<path
   d="m 21.93,84.27 c -4.81,-0.77 -5,-4.28 -4.98,-9.97 H 7.38 c 0,5.69 -0.16,9.2 -4.97,9.97 A 2.83914,2.88639 -180 0 0 0,87.02 h 24.34 a 2.83914,2.88639 -180 0 0 -2.41,-2.75 z"
   class="st3"
   id="path31"
   inkscape:connector-curvature="0"
   style="fill:url(#grad0-11);stroke:none;stroke-width:0.75;stroke-linecap:butt" />
			</g>
			<g
   id="shape4008-12"
   transform="rotate(135,22.453939,69.897404)">
				<title
   id="title34">Sheet.4008</title>
				<path
   d="m 16.22,75.09 h 2.57 a 0.784144,0.797194 0 0 1 0.784144,0.797194 L 19.58,86.23 a 0.784144,0.797194 0 0 1 -0.784144,0.797194 L 17.01,87.02 A 0.784144,0.797194 0 0 1 16.225856,86.222806 L 16.22,75.23 Z"
   class="st4"
   id="path36"
   inkscape:connector-curvature="0"
   style="fill:#86d633;stroke:none;stroke-width:0.75;stroke-linecap:butt" />
			</g>
			<g
   id="shape4009-14"
   transform="rotate(-135,24.048208,64.66224)">
				<title
   id="title39">Sheet.4009</title>
				<path
   d="m 27.34,62.5 h 2.57 v 23.73 a 0.784144,0.797194 0 0 1 -0.784144,0.797194 L 27.36,87.02 A 0.784144,0.797194 0 0 1 26.575856,86.222806 L 26.58,63.3 a 0.784144,0.797194 0 0 1 0.784144,-0.797194 z"
   class="st5"
   id="path41"
   inkscape:connector-curvature="0"
   style="fill:#5e9624;stroke:none;stroke-width:0.75;stroke-linecap:butt" />
			</g>
		</g>
	</g>
</svg>

<?xml version="1.0" encoding="UTF-8" standalone="no"?>
<!DOCTYPE svg PUBLIC "-//W3C//DTD SVG 1.1//EN" "http://www.w3.org/Graphics/SVG/1.1/DTD/svg11.dtd">
<!-- Generated by Microsoft Visio, SVG Export Intune Managed Desktop.svg Page-1 -->
<svg xmlns="http://www.w3.org/2000/svg" xmlns:xlink="http://www.w3.org/1999/xlink" xmlns:ev="http://www.w3.org/2001/xml-events"
		width="0.944882in" height="1.20866in" viewBox="0 0 68.0315 87.0236" xml:space="preserve" color-interpolation-filters="sRGB"
		class="st6">
	<style type="text/css">
	<![CDATA[
		.st1 {fill:url(#grad0-5);stroke:none;stroke-linecap:butt;stroke-width:0.75}
		.st2 {fill:#ffffff;stroke:none;stroke-linecap:butt;stroke-width:0.75}
		.st3 {fill:url(#grad0-11);stroke:none;stroke-linecap:butt;stroke-width:0.75}
		.st4 {fill:#86d633;stroke:none;stroke-linecap:butt;stroke-width:0.75}
		.st5 {fill:#5e9624;stroke:none;stroke-linecap:butt;stroke-width:0.75}
		.st6 {fill:none;fill-rule:evenodd;font-size:12px;overflow:visible;stroke-linecap:square;stroke-miterlimit:3}
	]]>
	</style>

	<defs id="Patterns_And_Gradients">
		<linearGradient id="grad0-5" x1="0" y1="0" x2="1" y2="0" gradientTransform="rotate(-90 0.5 0.5)">
			<stop offset="0" stop-color="#0078d4" stop-opacity="1"/>
			<stop offset="0.82" stop-color="#5ea0ef" stop-opacity="1"/>
		</linearGradient>
		<linearGradient id="grad0-11" x1="0" y1="0" x2="1" y2="0" gradientTransform="rotate(-90 0.5 0.5)">
			<stop offset="0" stop-color="#1490df" stop-opacity="1"/>
			<stop offset="0.98" stop-color="#1f56a3" stop-opacity="1"/>
		</linearGradient>
	</defs>
	<g>
		<title>Page-1</title>
		<g id="group3920-1" transform="translate(5.66929,-34.0157)">
			<title>Intune Managed Desktop</title>
			<g id="shape3921-2" transform="translate(0,-15.2017)">
				<title>Sheet.3921</title>
				<path d="M0 85.37 A1.6224 1.6494 -180 0 0 1.62 87.02 L47.05 87.02 A1.6224 1.6494 -180 0 0 48.67 85.37 L48.67 55.69
							 A1.6224 1.6494 -180 0 0 47.05 54.04 L1.62 54.04 A1.6224 1.6494 -180 0 0 0 55.69 L0 85.37 Z"
						class="st1"/>
			</g>
			<g id="shape3922-6" transform="translate(2.70394,-17.9506)">
				<title>Sheet.3922</title>
				<path d="M-0 86.12 a0.892322 0.907172 -180 0 0 0.892301 0.907151 L42.37 87.02 a0.892322 0.907172 -180 0 0 0.892301
							 -0.907151 L43.26 60.44 a0.892322 0.907172 -180 0 0 -0.892301 -0.907151 L0.89 59.53 a0.892322 0.907172
							 -180 0 0 -0.892301 0.907151 L0 86.12 Z" class="st2"/>
			</g>
			<g id="shape3923-8" transform="translate(12.1677,-2.47405)">
				<title>Sheet.3923</title>
				<path d="M21.93 84.27 C17.12 83.5 16.93 79.99 16.95 74.3 L7.38 74.3 C7.38 79.99 7.22 83.5 2.41 84.27 A2.83914 2.88639
							 -180 0 0 -0 87.02 L24.34 87.02 A2.83914 2.88639 -180 0 0 21.93 84.27 Z" class="st3"/>
			</g>
			<g id="shape3924-12" transform="translate(87.7562,103.445) rotate(135)">
				<title>Sheet.3924</title>
				<path d="M16.22 75.09 L18.79 75.09 a0.784144 0.797194 0 0 1 0.784144 0.797194 L19.58 86.23 a0.784144 0.797194 0 0
							 1 -0.784144 0.797194 L17.01 87.02 a0.784144 0.797194 0 0 1 -0.784144 -0.797194 L16.22 75.23 L16.22 75.09
							 Z" class="st4"/>
			</g>
			<g id="shape3925-14" transform="translate(-4.67025,127.39) rotate(-135)">
				<title>Sheet.3925</title>
				<path d="M27.34 62.5 L29.91 62.5 L29.91 86.23 a0.784144 0.797194 0 0 1 -0.784144 0.797194 L27.36 87.02 a0.784144
							 0.797194 0 0 1 -0.784144 -0.797194 L26.58 63.3 a0.784144 0.797194 0 0 1 0.784144 -0.797194 L27.34 62.5
							 Z" class="st5"/>
			</g>
		</g>
	</g>
</svg>
